src/components/Icon/svg-icon/main/spike-alert.svg

<svg xmlns="http://www.w3.org/2000/svg" width="24" height="24"><path fill="#677078" d="M12 23c1.1 0 1.99-.89 1.99-1.99h-3.98c0 1.1.89 1.99 1.99 1.99zm7-6v-6c0-3.35-2.36-6.15-5.5-6.83V1.5h-3v2.67C7.36 4.85 5 7.65 5 11v6l-2 2v1h18v-1l-2-2zm-6-1h-2v-2h2v2zm0-4h-2V8h2v4z"/></svg>

<svg xmlns="http://www.w3.org/2000/svg" width="24" height="24" viewBox="0 0 24 24">
  <path fill="#677078" d="M12,23 C13.1,23 13.99,22.11 13.99,21.01 L10.01,21.01 C10.01,22.11 10.9,23 12,23 Z M19,17 L19,11 C19,7.65 16.64,4.85 13.5,4.17 L13.5,1.5 L10.5,1.5 L10.5,4.17 C7.36,4.85 5,7.65 5,11 L5,17 L3,19 L3,20 L21,20 L21,19 L19,17 Z M13,16 L11,16 L11,14 L13,14 L13,16 Z M13,12 L11,12 L11,8 L13,8 L13,12 Z"/>
</svg>
